icons/jelastic-logo.svg

<?xml version="1.0" encoding="UTF-8"?>
<svg width="512px" height="124px" viewBox="0 0 512 124" version="1.1" xmlns="http://www.w3.org/2000/svg" xmlns:xlink="http://www.w3.org/1999/xlink" preserveAspectRatio="xMidYMid">
    <defs>
        <linearGradient x1="50.008%" y1="87.683%" x2="50.008%" y2="0.077%" id="linearGradient-1">
            <stop stop-color="#0056B3" offset="0%"></stop>
            <stop stop-color="#0056B3" offset="25%"></stop>
            <stop stop-color="#0088FB" offset="70%"></stop>
            <stop stop-color="#00ACFF" offset="100%"></stop>
        </linearGradient>
    </defs>
    <g>
        <path d="M128.829358,72.1290136 L145.613465,72.1290136 L145.613465,82.3264924 C145.463349,84.8365535 146.341147,87.2996284 148.044892,89.1490049 C150.203004,90.77367 152.882919,91.5485851 155.575059,91.3264025 C158.340897,91.5604469 161.072968,90.5880146 163.068936,88.6590904 C164.375374,87.0441872 165.010449,83.560351 165.010449,78.2257269 L165.010449,28.7080764 C164.979182,26.3601286 165.9492,24.1099509 167.677761,22.5206382 C169.367136,20.8525239 171.654557,19.93102 174.028504,19.9614299 L182.302615,19.9614299 L182.302615,78.9333811 C182.407099,82.8309085 182.158099,86.7298848 181.55867,90.5824583 C180.931076,92.9463272 179.859631,95.1692683 178.401444,97.1327961 C175.978144,99.9868749 172.850475,102.157477 169.328954,103.429104 C164.916523,104.758617 160.328401,105.41319 155.720219,105.370617 C148.190052,105.370617 139.480462,103.810149 134.109548,98.112625 C132.217257,96.2167491 130.805115,93.8963578 129.990637,91.3445475 C129.044513,87.18003 128.635948,82.9114384 128.774923,78.6430615 L128.774923,72.1290136 L128.829358,72.1290136 L128.829358,72.1290136 Z M234.306127,84.2317153 L246.445119,84.2317153 C245.042228,90.4796737 241.426693,96.009315 236.265785,99.8001082 C230.734497,103.688806 224.078729,105.652386 217.322426,105.388762 C208.104776,105.388762 200.864929,102.376695 195.69361,96.316272 C190.522291,90.2558487 187.909413,82.1631876 187.909413,71.3124895 C187.909413,60.9577542 190.425517,52.8711415 195.457725,47.0526512 C200.489933,41.2341609 207.699538,38.2099976 217.086541,37.9801612 C226.763864,37.9801612 234.294031,40.8894063 239.677041,46.7078966 C245.060052,52.5263868 247.648736,60.8488844 247.443093,71.6753891 C247.466524,73.1312785 247.381614,74.5868939 247.189063,76.0301843 L205.183434,76.0301843 C205.346739,81.0926338 206.544308,84.8304997 208.81243,87.280072 C211.174132,90.0081779 214.685259,91.4610582 218.28411,91.1993876 C225.796132,91.1993876 225.342507,88.8223953 229.806172,85.3385591 C231.131691,84.4495765 232.713275,84.0222937 234.306127,84.1228454 L234.306127,84.2317153 L234.306127,84.2317153 Z M205.183434,65.2157762 L229.951332,65.2157762 C229.948587,61.7007129 228.752229,58.2907733 226.558221,55.5445019 C224.193715,53.1843891 220.928516,51.9549823 217.594601,52.1695356 C214.338948,52.0422158 211.174903,53.2631959 208.84872,55.5445019 C206.436665,58.1793609 205.136401,61.6445652 205.219724,65.2157762 L205.183434,65.2157762 L205.183434,65.2157762 Z M252.904732,19.962196 L261.668757,19.962196 C263.844937,19.9246451 265.946801,20.753641 267.511441,22.2666084 C269.104567,23.7346452 269.990147,25.8164175 269.942868,27.9822772 L269.942868,105.370617 L252.904732,105.370617 L252.904732,19.962196 Z M314.398069,71.5665192 C311.335656,72.9611392 308.128814,74.0138598 304.835665,74.7056008 L299.247011,75.9213144 C294.620041,77.209608 291.208785,79.078541 291.208785,84.4131651 C291.10316,86.5748372 291.898062,88.6836288 293.404327,90.2377037 C295.190356,91.655427 297.444764,92.3485927 299.71878,92.1792166 C303.67205,92.5232179 307.576098,91.1081094 310.390773,88.310917 C313.205448,85.5137245 314.644853,81.6185691 314.325489,77.6632325 L314.325489,71.5665192 L314.398069,71.5665192 L314.398069,71.5665192 Z M318.281095,101.360576 C308.519096,106.477461 291.3358,107.23955 281.991135,100.507762 C277.624243,97.3626325 275.434749,92.1429266 275.422652,84.8486446 C275.422652,78.0261321 277.4186,73.1814225 281.392351,70.3326606 C290.737015,63.4375682 314.053315,64.7621517 314.053315,57.21384 C314.053315,52.0969556 307.303382,51.3711564 303.365921,51.3711564 C301.296449,51.3389003 299.237876,51.6768749 297.287353,52.3691303 C295.530966,53.0165008 294.128151,54.3732134 293.422472,56.1069962 L277.09199,56.1069962 C277.651025,51.1653528 280.150993,46.6484395 284.041518,43.55067 C288.40841,39.8249008 294.638186,37.9620162 302.730847,37.9620162 C311.803337,37.9620162 318.607705,39.5043395 323.14395,42.5889861 C327.755613,45.5710447 330.452344,50.7644938 330.238637,56.2521561 L330.238637,78.2983068 C330.238637,84.782113 329.065262,89.8445625 326.718511,93.4856551 C324.68052,96.8145464 321.785176,99.5344149 318.33553,101.360576 L318.281095,101.360576 L318.281095,101.360576 Z M335.682131,82.7438269 L352.194063,82.7438269 C352.164778,85.6062937 353.515514,88.3077671 355.823059,90.001819 C358.749785,91.7483627 362.126172,92.5940371 365.530623,92.4332463 C368.138204,92.5052952 370.721855,91.9186692 373.042645,90.7276182 C374.807856,89.8748236 375.939074,88.0971957 375.963987,86.1369382 C375.963987,83.2095481 372.558779,81.0261022 365.748363,79.5866004 C363.526055,79.2569908 361.33074,78.7657739 359.17988,78.116857 C350.57916,76.024136 344.827201,73.5261771 341.924004,70.6229803 C338.652447,67.6555628 336.870406,63.3866421 337.061149,58.9739031 C336.940883,53.0659121 339.535433,47.4287846 344.101402,43.6776849 C348.940063,39.9640123 355.260564,38.107176 363.062906,38.107176 C371.530563,38.107176 378.250254,39.9700606 383.221979,43.6958299 C387.873134,47.6377461 390.608686,53.3863702 390.734,59.4819625 L380.300637,59.4819625 C372.73418,59.4819625 374.421663,51.1534167 363.316936,51.1534167 C360.812816,51.0019801 358.312193,51.5021047 356.058944,52.6050151 C354.60629,53.5794377 353.777926,55.2499714 353.881546,56.9961003 C353.881546,63.0202336 380.590957,65.1794863 388.357008,71.802404 C391.524029,74.8376876 393.235487,79.086596 393.056558,83.4696261 C393.375398,89.9319271 390.457085,96.1290915 385.272361,99.999703 C380.4337,103.568216 373.175708,105.352472 363.498385,105.352472 C354.256542,105.352472 347.379595,103.489587 342.867543,99.7638182 C338.077268,96.038049 335.682131,90.6066516 335.682131,83.4696261 L335.682131,82.7438269 L335.682131,82.7438269 Z M425.300187,104.844413 C414.413199,105.515777 398.572632,107.802044 398.572632,92.705421 L398.572632,21.2867795 L407.336657,21.2867795 C409.453474,21.2997676 411.4728,22.1783057 412.925311,23.7182068 C414.506869,25.2396067 415.387184,27.3484219 415.356738,29.5427454 L415.356738,40.4297335 L425.300187,40.4297335 L425.300187,43.8409897 C425.377971,46.0812391 424.492931,48.2476047 422.86876,49.7925432 C421.317125,51.3162706 419.218589,52.1530699 417.044221,52.1151006 L415.338593,52.1151006 L415.338593,88.0240161 C415.338593,90.7820531 416.953497,92.1429266 420.183303,92.1429266 L425.282042,92.1429266 L425.282042,104.844413 L425.300187,104.844413 L425.300187,104.844413 Z M430.888841,40.7922107 L439.652867,40.7922107 C441.850961,40.7701169 443.962377,41.6487811 445.49555,43.2240604 C447.061467,44.7336726 447.940237,46.8191128 447.927125,48.9941641 L447.927125,105.243602 L430.888841,105.243602 L430.888841,40.7922107 L430.888841,40.7922107 Z M499.85791,84.1409904 L511.996902,84.1409904 C510.581324,90.378394 506.959866,95.8943511 501.799423,99.6730933 C490.440666,108.128654 470.807797,107.330275 461.245393,96.2799821 C456.068025,90.4614918 453.479341,82.1268976 453.479341,71.2761996 C453.479341,60.9214643 455.989397,52.8348515 461.009508,47.0163612 C471.606176,34.7684997 494.432561,35.0406744 505.21068,46.7623315 C508.158463,50.4040447 510.304035,54.6271733 511.506988,59.1553529 L494.523286,59.1553529 C493.908358,57.8255401 493.08783,56.6008714 492.091859,55.5263569 C489.708126,53.1233217 486.395831,51.8778988 483.019369,52.1151006 C479.767272,51.9976331 476.610389,53.2249453 474.291634,55.5082119 C471.400533,58.7259217 469.954983,64.0605458 469.954983,71.5120843 C469.954983,78.9636228 471.41263,84.2317153 474.327923,87.3163619 C476.694937,90.0353496 480.204279,91.480768 483.799603,91.2175326 C487.476884,91.4754324 491.068962,90.0305744 493.543457,87.2982169 C494.103137,86.5476933 494.755484,85.8709604 495.48497,85.2841242 C496.75728,84.3835094 498.303331,83.9536944 499.85791,84.0684105 L499.85791,84.1409904 L499.85791,84.1409904 Z" fill="#5E6981"></path>
        <path d="M448.689067,37.5991166 C446.097467,36.4116496 443.383784,35.5111449 440.596406,34.9136595 C435.624681,33.8431057 428.965473,33.2261764 428.965473,26.6214037 C428.965473,17.6577835 440.886725,18.8190622 445.295955,23.3190173 C447.593617,25.7638726 448.793074,29.0410772 448.616487,32.3915073 L448.616487,37.5809716 L448.689067,37.5991166 L448.689067,37.5991166 Z" fill="#0987F7"></path>
        <g>
            <path d="M27.0904552,76.6652586 L54.1446205,61.0424308 L54.1446205,29.7967752 L27.0904552,45.419603 L27.0904552,76.6652586 Z M54.1446205,61.0424308 L54.1446205,29.7967752 L81.1987857,45.419603 L81.1987857,76.6652586 L54.1446205,61.0424308 Z" fill="#0064C8"></path>
            <path d="M106.892077,30.5770093 C104.85984,27.202043 101.448583,25.9137494 98.1824871,23.9903815 L64.1606495,4.33936815 C54.4349402,-1.32186563 54.4349402,-1.57589535 44.0923015,4.35751313 L27.0723102,14.1739473 L81.1987857,45.365168 L81.1987857,76.6652586 L54.1446205,92.2880865 L27.0723102,76.6652586 L27.0723102,45.365168 L0,61.0424308 L0,80.6752992 C0,92.5421162 0.217739761,92.3969563 10.034174,97.9856102 L44.0923015,117.727348 C53.9087357,123.388582 53.9087357,123.660757 64.1606495,117.727348 L98.236922,97.9856102 C108.053356,92.3243764 108.252951,92.4332463 108.252951,80.6027193 L108.252951,41.3551275 C108.252951,37.5083917 108.86988,33.9701206 106.892077,30.5770093 Z" fill="url(#linearGradient-1)"></path>
            <path d="M1.28927838e-14,61.0424308 L1.28927838e-14,80.6752992 C1.28927838e-14,92.5421162 0.217739761,92.3969563 10.034174,97.9856102 L44.0923015,117.727348 C53.9087357,123.388582 53.9087357,123.660757 64.1606495,117.727348 L54.1264755,92.3243764 L27.0723102,76.6652586 L27.0723102,45.365168 L1.28927838e-14,61.0424308 Z" fill="#0056B3"></path>
            <path d="M106.873932,30.5951543 C104.841695,27.220188 101.430438,25.9318944 98.1643421,24.0085265 L64.1425045,4.35751313 C54.3442153,-1.30372065 54.3260703,-1.55775037 44.0741565,4.35751313 L27.0541653,14.1920923 L81.1806407,45.365168 L81.1806407,76.6834036 L54.1083305,92.3062314 L27.0541653,76.6834036 L27.0541653,45.365168 L0,61.0605758 L0,80.7115892 C0,92.5421162 0.199594781,92.4332463 10.016029,98.0944801 L44.0741565,117.745493 C53.8905907,123.406727 53.8905907,123.678902 64.1425045,117.745493 L98.200632,98.0944801 C108.017066,92.4332463 108.216661,92.5421162 108.216661,80.7115892 L108.216661,41.3732724 C108.234806,37.5265367 108.86988,34.0064105 106.873932,30.5951543 L106.873932,30.5951543 Z" fill="#0088FB" opacity="0.3"></path>
            <path d="M27.0723102,76.6652586 L54.1264755,61.0424308 L54.1264755,29.7967752 L27.0723102,45.419603 L27.0723102,76.6652586 Z M54.1264755,61.0424308 L54.1264755,29.7967752 L81.1987857,45.419603 L81.1987857,76.6652586 L54.1264755,61.0424308 Z" fill="#0064C8"></path>
        </g>
    </g>
</svg>

<svg xmlns="http://www.w3.org/2000/svg" viewBox="0 0 511.997 122.094">
  <defs>
    <linearGradient id="a" x1="57.512" x2="57.512" y1="100.84" y2=".089" gradientTransform="scale(.94208 1.06148)" gradientUnits="userSpaceOnUse">
      <stop offset="0%" stop-color="#0056B3"/>
      <stop offset="25%" stop-color="#0056B3"/>
      <stop offset="70%" stop-color="#0088FB"/>
      <stop offset="100%" stop-color="#00ACFF"/>
    </linearGradient>
  </defs>
  <path fill="#5e6981" d="M128.83 72.129h16.783v10.197a9.254 9.254 0 0 0 2.432 6.823 11.014 11.014 0 0 0 7.53 2.177 9.617 9.617 0 0 0 7.494-2.667c1.306-1.615 1.941-5.099 1.941-10.433V28.708a8.256 8.256 0 0 1 2.668-6.187 8.877 8.877 0 0 1 6.35-2.56h8.275v58.972a64.523 64.523 0 0 1-.744 11.65 19.288 19.288 0 0 1-3.158 6.55 21.465 21.465 0 0 1-9.072 6.296c-4.412 1.33-9 1.984-13.609 1.942-7.53 0-16.24-1.56-21.61-7.258a16.82 16.82 0 0 1-4.12-6.768 49.99 49.99 0 0 1-1.215-12.702V72.13h.054zm105.476 12.103h12.14a26.528 26.528 0 0 1-10.18 15.568 30.846 30.846 0 0 1-18.944 5.589c-9.217 0-16.457-3.012-21.628-9.073-5.172-6.06-7.785-14.153-7.785-25.004 0-10.354 2.517-18.44 7.549-24.26 5.032-5.818 12.242-8.842 21.629-9.072 9.677 0 17.207 2.91 22.59 8.728 5.383 5.818 7.972 14.14 7.766 24.967a29.366 29.366 0 0 1-.254 4.355h-42.006c.164 5.063 1.361 8.8 3.63 11.25a11.431 11.431 0 0 0 9.471 3.92c7.512 0 7.059-2.378 11.522-5.861a7.258 7.258 0 0 1 4.5-1.216zm-29.123-19.016h24.768a15.515 15.515 0 0 0-3.393-9.671 11.63 11.63 0 0 0-8.963-3.375 11.83 11.83 0 0 0-8.746 3.375 13.845 13.845 0 0 0-3.63 9.67h-.036zm47.722-45.254h8.764a8.202 8.202 0 0 1 5.842 2.305 7.548 7.548 0 0 1 2.432 5.715v77.389h-17.038zm61.493 51.605a45.78 45.78 0 0 1-9.562 3.139l-5.589 1.215c-4.627 1.289-8.038 3.158-8.038 8.492a7.82 7.82 0 0 0 2.195 5.825 9.072 9.072 0 0 0 6.315 1.941 13.482 13.482 0 0 0 14.606-14.516v-6.096h.073zm3.883 29.794c-9.762 5.116-26.945 5.879-36.29-.853-4.367-3.145-6.556-8.365-6.568-15.66 0-6.822 1.996-11.667 5.97-14.515 9.344-6.895 32.66-5.57 32.66-13.12 0-5.116-6.75-5.842-10.687-5.842a17.365 17.365 0 0 0-6.079.998 6.66 6.66 0 0 0-3.865 3.738h-16.33a18.744 18.744 0 0 1 6.95-12.556c4.366-3.726 10.596-5.589 18.689-5.589 9.072 0 15.877 1.542 20.413 4.627a15.55 15.55 0 0 1 7.095 13.663v22.046c0 6.484-1.174 11.547-3.52 15.188a21.774 21.774 0 0 1-8.383 7.875h-.055zm17.401-18.617h16.512a8.891 8.891 0 0 0 3.63 7.258 17.347 17.347 0 0 0 9.707 2.431 15.514 15.514 0 0 0 7.512-1.705 5.171 5.171 0 0 0 2.921-4.591c0-2.927-3.405-5.11-10.216-6.55a46.215 46.215 0 0 1-6.568-1.47c-8.6-2.093-14.353-4.59-17.256-7.494a14.86 14.86 0 0 1-4.863-11.65 19.288 19.288 0 0 1 7.04-15.295c4.84-3.714 11.16-5.57 18.962-5.57 8.468 0 15.187 1.862 20.159 5.588a21.266 21.266 0 0 1 7.512 15.786h-10.433c-7.567 0-5.88-8.329-16.984-8.329a14.516 14.516 0 0 0-7.258 1.452 4.935 4.935 0 0 0-2.177 4.391c0 6.024 26.709 8.183 34.475 14.806a15.296 15.296 0 0 1 4.7 11.668 19.433 19.433 0 0 1-7.785 16.53c-4.838 3.568-12.096 5.352-21.774 5.352-9.241 0-16.118-1.862-20.63-5.588-4.79-3.726-7.186-9.157-7.186-16.294zm89.618 22.1c-10.887.672-26.727 2.958-26.727-12.139V21.287h8.764a7.748 7.748 0 0 1 5.588 2.431 7.93 7.93 0 0 1 2.432 5.825V40.43h9.943v3.411a7.839 7.839 0 0 1-2.431 5.952 8.11 8.11 0 0 1-5.825 2.322h-1.705v35.909c0 2.758 1.614 4.119 4.844 4.119h5.099v12.701h.018zm5.589-64.052h8.764a8.04 8.04 0 0 1 5.843 2.432 7.948 7.948 0 0 1 2.431 5.77v56.25H430.89zm68.969 43.349h12.139a26.528 26.528 0 0 1-10.198 15.532c-11.358 8.456-30.991 7.657-40.554-3.393-5.177-5.819-7.766-14.153-7.766-25.004 0-10.355 2.51-18.441 7.53-24.26 10.597-12.248 33.424-11.975 44.202-.254a33.278 33.278 0 0 1 6.296 12.393h-16.984a13.954 13.954 0 0 0-2.431-3.629 11.63 11.63 0 0 0-9.073-3.41 11.83 11.83 0 0 0-8.727 3.392c-2.891 3.218-4.337 8.553-4.337 16.004 0 7.452 1.458 12.72 4.373 15.804a11.45 11.45 0 0 0 9.472 3.902 12.012 12.012 0 0 0 9.743-3.92c.56-.75 1.212-1.427 1.942-2.014a6.714 6.714 0 0 1 4.373-1.216z"/>
  <path fill="#0987f7" d="M448.69 37.6a39.103 39.103 0 0 0-8.094-2.686c-4.971-1.07-11.63-1.688-11.63-8.293 0-8.963 11.92-7.802 16.33-3.302a12.302 12.302 0 0 1 3.32 9.073v5.189l.073.018z"/>
  <path fill="#0064c8" d="m27.09 76.665 27.055-15.623V29.797L27.09 45.42zm27.055-15.623V29.797L81.199 45.42v31.245z"/>
  <path fill="url(#a)" d="M106.892 30.577c-2.032-3.375-5.443-4.663-8.71-6.587L64.161 4.34c-9.726-5.662-9.726-5.916-20.069.018l-17.02 9.816L81.2 45.365v31.3L54.145 92.288 27.072 76.665v-31.3L0 61.042v19.633c0 11.867.218 11.722 10.034 17.31l34.058 19.742c9.817 5.662 9.817 5.934 20.069 0l34.076-19.741c9.816-5.662 10.016-5.553 10.016-17.383V41.355c0-3.847.617-7.385-1.36-10.778z" style="fill:url(#a)"/>
  <path fill="#0056b3" d="M0 61.042v19.633c0 11.867.218 11.722 10.034 17.31l34.058 19.742c9.817 5.662 9.817 5.934 20.069 0L54.126 92.324 27.072 76.665v-31.3z"/>
  <path fill="#0088fb" d="M106.874 30.595c-2.032-3.375-5.444-4.663-8.71-6.586L64.143 4.358c-9.799-5.662-9.817-5.916-20.069 0l-17.02 9.834 54.127 31.173v31.318L54.108 92.306 27.054 76.683V45.365L0 61.061v19.65c0 11.831.2 11.722 10.016 17.383l34.058 19.651c9.817 5.662 9.817 5.934 20.069 0L98.2 98.095c9.816-5.662 10.016-5.553 10.016-17.383V41.373c.018-3.846.653-7.367-1.343-10.778z" opacity=".3"/>
  <path fill="#0064c8" d="m27.072 76.665 27.054-15.623V29.797L27.072 45.42zm27.054-15.623V29.797L81.2 45.42v31.245z"/>
</svg>
